images/process2.svg

<?xml version="1.0" encoding="UTF-8" standalone="no"?>
<svg width="90px" height="90px" viewBox="0 0 90 90" version="1.1" xmlns="http://www.w3.org/2000/svg" xmlns:xlink="http://www.w3.org/1999/xlink" xmlns:sketch="http://www.bohemiancoding.com/sketch/ns">
    <!-- Generator: Sketch 3.3.3 (12081) - http://www.bohemiancoding.com/sketch -->
    <title>process2</title>
    <desc>Created with Sketch.</desc>
    <defs></defs>
    <g id="Page-1" stroke="none" stroke-width="1" fill="none" fill-rule="evenodd" sketch:type="MSPage">
        <g id="process2" sketch:type="MSArtboardGroup" fill="#CD2122">
            <path d="M18.8859454,32.3716445 C18.2472604,31.7368069 17.2149102,31.7368069 16.5762251,32.3716445 L5.02599007,43.8522998 C4.38730504,44.4871373 4.38730504,45.5132686 5.02599007,46.1481061 L16.5762251,57.6287614 C16.8947509,57.9453684 17.3129181,58.1044837 17.7310853,58.1044837 C18.1492525,58.1044837 18.5674197,57.9453684 18.8859454,57.6287614 C19.5246305,56.9939239 19.5246305,55.9677926 18.8859454,55.3329551 L8.49057055,45.000203 L18.8859454,34.6674508 C19.5246305,34.0326133 19.5246305,33.0048584 18.8859454,32.3716445 Z M74.4237749,32.3716445 C73.7850898,31.7368069 72.7527396,31.7368069 72.1140546,32.3716445 C71.4753695,33.006482 71.4753695,34.0326133 72.1140546,34.6674508 L82.5094294,45.000203 L72.1140546,55.3329551 C71.4753695,55.9677926 71.4753695,56.9939239 72.1140546,57.6287614 C72.4325803,57.9453684 72.8507475,58.1044837 73.2689147,58.1044837 C73.6870819,58.1044837 74.1052491,57.9453684 74.4237749,57.6287614 L85.9740099,46.1481061 C86.612695,45.5132686 86.612695,44.4871373 85.9740099,43.8522998 L74.4237749,32.3716445 Z M78.3923712,10.5397305 C78.080479,10.3072205 77.7685868,10.1522138 77.3787215,10.1522138 C76.676964,10.1522138 76.1311526,10.6172339 75.6633142,11.1597573 L74.8056106,11.779784 C74.7276375,11.779784 74.7276375,11.8572873 74.7276375,11.8572873 L42.2128721,50.841468 C42.1348991,50.9189713 42.1348991,50.9964746 42.1348991,51.073978 L41.0432763,56.5767152 C40.731384,56.3442052 40.1855726,56.3442052 39.7957073,56.8092252 C38.2362462,58.9018154 34.1036741,55.6466751 31.9204284,57.1967419 C30.3609673,58.2817887 30.1270481,59.9093589 30.6728595,61.6919357 C31.4525901,64.017036 33.0900243,66.1096262 34.4935394,68.0472097 C34.5715124,68.124713 34.5715124,68.2022164 34.6494855,68.2797197 C30.6728595,66.8071562 25.7605568,64.1720426 22.4077153,66.1096262 C20.0685236,67.427183 19.6006852,69.9072899 20.2244697,72.3873968 C20.5363619,73.4724436 21.0042003,74.479987 21.3940655,75.4875305 C21.3940655,75.5650338 21.4720386,75.6425371 21.4720386,75.7200405 C21.3940655,75.7200405 21.3940655,75.7975438 21.3160925,75.8750472 C20.3804158,76.4950739 20.2244697,77.657624 21.0042003,78.5101608 C22.5636614,80.2927376 25.1367724,80.2152343 26.9301527,78.7426708 C28.5675869,77.2701073 28.2556947,75.0225104 27.6319102,73.0849269 C28.3336677,73.3174369 28.9574522,73.5499469 29.6592097,73.7824569 C32.5442129,74.7900004 35.6631352,75.9525505 38.7820576,75.8750472 C41.2771954,75.7975438 44.2401717,73.5499469 43.2265219,70.7598266 C42.3688183,68.3572231 40.3415187,66.7296529 38.5481384,65.0245794 C37.4565156,64.017036 36.4428658,62.9319892 35.4292161,61.8469424 C34.3375932,60.6843923 32.5442129,58.9793188 35.4292161,59.4443388 C37.7684078,59.8318555 40.731384,60.3743789 41.3551685,57.429252 L41.3551685,57.1967419 C41.4331416,57.1967419 41.5111146,57.2742453 41.5111146,57.2742453 C41.5890877,57.2742453 41.6670607,57.2742453 41.7450338,57.1967419 L46.8912556,54.8716417 C46.9692287,54.8716417 47.0472018,54.7941384 47.1251748,54.716635 L77.9245329,14.4148976 C77.9245329,14.4148976 78.002506,14.3373942 78.002506,14.2598909 L78.3923712,13.2523475 C78.7822365,12.7873274 79.6399402,11.547274 78.3923712,10.5397305 Z M42.2128721,55.8791851 L43.0705758,51.6165014 L43.0705758,51.6165014 C43.4604411,51.6165014 44.0842255,51.9265147 44.9419292,52.5465415 C45.7996328,53.2440715 46.1894981,53.9416016 46.2674712,54.1741116 L42.2128721,55.8791851 L42.2128721,55.8791851 Z M62.018029,33.5582229 L47.0472018,53.1665682 C46.7353095,52.6240448 46.1115251,52.0040181 45.5657137,51.538998 L45.5657137,51.538998 C45.0199022,51.073978 44.3961178,50.7639646 43.8503064,50.6089579 L59.6008642,31.6981427 L59.6788372,31.6206393 C59.6788372,31.6206393 59.7568103,31.6206393 59.7568103,31.543136 L59.9127564,31.543136 L59.9127564,31.543136 C60.1466756,31.543136 60.692487,31.6981427 61.2382984,32.1631627 L61.2382984,32.1631627 C61.8620829,32.6281828 62.096002,33.1707062 62.096002,33.4032162 L62.096002,33.4032162 L62.096002,33.4032162 C62.096002,33.4807195 62.018029,33.4807195 62.018029,33.5582229 L62.018029,33.5582229 Z M62.8757326,32.4731761 C62.6418134,32.0856594 62.2519482,31.6981427 61.7841098,31.310626 C61.3162715,31.0006126 60.9264062,30.7681026 60.4585678,30.6130959 L75.429395,12.7098241 C75.5073681,13.0198374 75.7412873,13.3298508 76.0531795,13.5623608 C76.3650717,13.7948709 76.676964,13.9498775 77.0668293,13.9498775 L62.8757326,32.4731761 L62.8757326,32.4731761 Z M77.6126407,12.6323207 C77.5346676,12.6323207 77.5346676,12.7098241 77.4566945,12.7098241 C77.3787215,12.7873274 77.2227754,12.8648308 77.1448023,12.8648308 C76.9888562,12.8648308 76.8329101,12.7873274 76.676964,12.7098241 C76.5210178,12.5548174 76.3650717,12.3223074 76.3650717,12.1673007 C76.3650717,12.0897974 76.3650717,12.012294 76.4430448,11.9347907 L76.4430448,11.9347907 C76.676964,11.6247773 77.0668293,11.2372606 77.3787215,11.2372606 C77.4566945,11.2372606 77.6126407,11.3147639 77.7685868,11.3922673 C78.080479,11.6247773 78.1584521,11.779784 77.6126407,12.6323207 L77.6126407,12.6323207 Z" id="Shape" sketch:type="MSShapeGroup"></path>
        </g>
    </g>
</svg>

<svg width="90" height="90" xmlns="http://www.w3.org/2000/svg"><g id="Page-1" stroke="none" stroke-width="1" fill="none" fill-rule="evenodd"><g id="process2" fill="#CD2122"><path d="M18.886 32.372a1.639 1.639 0 00-2.31 0l-11.55 11.48a1.615 1.615 0 000 2.296l11.55 11.48a1.637 1.637 0 002.31.001 1.615 1.615 0 000-2.296L8.49 45l10.395-10.333a1.615 1.615 0 000-2.295zm55.538 0a1.639 1.639 0 00-2.31 0 1.615 1.615 0 000 2.295L82.51 45 72.114 55.333a1.615 1.615 0 000 2.296c.319.316.737.475 1.155.475.418 0 .836-.159 1.155-.475l11.55-11.48a1.615 1.615 0 000-2.297l-11.55-11.48zm3.968-21.832c-.312-.233-.623-.388-1.013-.388-.702 0-1.248.465-1.716 1.008l-.857.62c-.078 0-.078.077-.078.077L42.213 50.841c-.078.078-.078.155-.078.233l-1.092 5.503c-.312-.233-.857-.233-1.247.232-1.56 2.093-5.692-1.162-7.876.388-1.559 1.085-1.793 2.712-1.247 4.495.78 2.325 2.417 4.418 3.82 6.355.079.078.079.155.156.233-3.976-1.473-8.888-4.108-12.241-2.17-2.34 1.317-2.807 3.797-2.184 6.277.312 1.085.78 2.093 1.17 3.1 0 .078.078.156.078.233-.078 0-.078.078-.156.155-.936.62-1.092 1.783-.312 2.635 1.56 1.783 4.133 1.705 5.926.233 1.638-1.473 1.326-3.72.702-5.658.702.232 1.325.465 2.027.697 2.885 1.008 6.004 2.17 9.123 2.093 2.495-.077 5.458-2.325 4.445-5.115-.858-2.403-2.885-4.03-4.679-5.735-1.091-1.008-2.105-2.093-3.119-3.178-1.091-1.163-2.885-2.868 0-2.403 2.34.388 5.302.93 5.926-2.015v-.232c.078 0 .156.077.156.077.078 0 .156 0 .234-.077l5.146-2.325c.078 0 .156-.078.234-.155l30.8-40.302s.078-.078.078-.155l.39-1.008c.39-.465 1.247-1.705 0-2.712zm-36.18 45.34l.859-4.263c.39 0 1.013.31 1.87.93.859.697 1.248 1.395 1.326 1.627l-4.054 1.705zm19.806-22.322l-14.97 19.609c-.313-.543-.936-1.163-1.482-1.628a4.693 4.693 0 00-1.716-.93l15.75-18.91.079-.078s.078 0 .078-.078h.156c.234 0 .78.155 1.325.62.624.465.858 1.008.858 1.24 0 .078-.078.078-.078.155zm.858-1.085c-.234-.387-.624-.775-1.092-1.162-.468-.31-.858-.543-1.325-.698l14.97-17.903c.078.31.312.62.624.852.312.233.624.388 1.014.388L62.876 32.473zm14.737-19.84c-.078 0-.078.077-.156.077-.078.077-.234.155-.312.155-.156 0-.312-.078-.468-.155-.156-.155-.312-.388-.312-.543 0-.077 0-.155.078-.232.234-.31.624-.698.936-.698.078 0 .234.078.39.155.311.233.39.388-.156 1.24z" id="Shape"/></g></g></svg>
